src/16/places/user-trash.svg

<?xml version="1.0" encoding="UTF-8" standalone="no"?>
<svg
   xmlns:dc="http://purl.org/dc/elements/1.1/"
   xmlns:cc="http://creativecommons.org/ns#"
   xmlns:rdf="http://www.w3.org/1999/02/22-rdf-syntax-ns#"
   xmlns:svg="http://www.w3.org/2000/svg"
   xmlns="http://www.w3.org/2000/svg"
   xmlns:sodipodi="http://sodipodi.sourceforge.net/DTD/sodipodi-0.dtd"
   xmlns:inkscape="http://www.inkscape.org/namespaces/inkscape"
   width="16"
   height="16"
   viewBox="0 0 16 16"
   version="1.1"
   id="svg7"
   sodipodi:docname="user-trash.svg"
   inkscape:version="0.92.4 (5da689c313, 2019-01-14)">
  <metadata
     id="metadata11">
    <rdf:RDF>
      <cc:Work
         rdf:about="">
        <dc:format>image/svg+xml</dc:format>
        <dc:type
           rdf:resource="http://purl.org/dc/dcmitype/StillImage" />
      </cc:Work>
    </rdf:RDF>
  </metadata>
  <sodipodi:namedview
     pagecolor="#ffffff"
     bordercolor="#666666"
     borderopacity="1"
     objecttolerance="10"
     gridtolerance="10"
     guidetolerance="10"
     inkscape:pageopacity="0"
     inkscape:pageshadow="2"
     inkscape:window-width="1366"
     inkscape:window-height="710"
     id="namedview9"
     showgrid="false"
     inkscape:zoom="14.75"
     inkscape:cx="-1.0169492"
     inkscape:cy="8"
     inkscape:window-x="0"
     inkscape:window-y="0"
     inkscape:window-maximized="1"
     inkscape:current-layer="svg7" />
  <defs
     id="defs3">
    <style
       id="current-color-scheme"
       type="text/css">
   .ColorScheme-Text { color:#727272; } .ColorScheme-Highlight { color:#5294e2; }
  </style>
  </defs>
  <g
     transform="translate(-1457,-762)"
     id="user-trash_16"
     inkscape:label="#g6484">
    <g
       inkscape:label="#g4141-8"
       transform="translate(1457,762)"
       id="omkj">
      <rect
         style="opacity:1;fill:none;fill-opacity:1;stroke:none;stroke-width:1;stroke-linecap:butt;stroke-linejoin:miter;stroke-miterlimit:4;stroke-dasharray:none;stroke-dashoffset:0;stroke-opacity:1"
         id="rect4139-28-0"
         width="16"
         height="16"
         x="0"
         y="0" />
    </g>
    <g
       transform="translate(1456.9996,761.99912)"
       id="g6413">
      <path
         style="opacity:1;fill:#636a78;fill-opacity:1;stroke:#272a2f;stroke-width:1;stroke-linecap:butt;stroke-linejoin:miter;stroke-miterlimit:4;stroke-dasharray:none;stroke-dashoffset:0;stroke-opacity:0.78431373"
         d="M 2.8167222,0.50017229 H 13.184108 c 0.287176,0 0.42977,0.39765895 0.51837,0.83870101 l 0.466532,2.3224038 c 0.0886,0.4410421 -0.231194,0.8387012 -0.51837,0.8387012 H 2.3501898 c -0.2871765,0 -0.6069672,-0.3976592 -0.5183692,-0.8387012 L 2.298353,1.3388733 C 2.3869509,0.89783124 2.5295456,0.50017229 2.8167222,0.50017229 Z"
         id="rect4290-3"
         inkscape:connector-curvature="0"
         sodipodi:nodetypes="sssssssss" />
      <path
         style="opacity:0.3;fill:#000000;fill-opacity:1;stroke:none;stroke-width:0.99999994;stroke-linecap:butt;stroke-linejoin:miter;stroke-miterlimit:4;stroke-dasharray:none;stroke-dashoffset:0;stroke-opacity:1"
         d="M 13.090909,1.0001909 11.487273,12.807134 c -0.03998,0.29432 -0.227055,0.53668 -0.509091,0.53668 H 5.0218182 c -0.2820364,0 -0.4691161,-0.24236 -0.5090909,-0.53668 L 2.9090909,1.0001909 Z"
         id="rect4203-7-01"
         inkscape:connector-curvature="0"
         sodipodi:nodetypes="csssscc" />
      <path
         style="opacity:1;fill:#636a78;fill-opacity:1;stroke:#272a2f;stroke-width:0.99999994;stroke-linecap:butt;stroke-linejoin:miter;stroke-miterlimit:4;stroke-dasharray:none;stroke-dashoffset:0;stroke-opacity:0.78431373"
         d="M 14.144654,4.4996529 13.034563,15.012451 c -0.02848,0.269697 -0.230279,0.489135 -0.516321,0.489135 H 3.4826171 c -0.286042,0 -0.4884931,-0.219374 -0.5163213,-0.489135 L 1.8562049,4.4996529 Z"
         id="rect4203-78"
         inkscape:connector-curvature="0"
         sodipodi:nodetypes="csssscc" />
      <path
         sodipodi:nodetypes="csccsccccccccsccccccsccccccccsccccccccccsccccccccscscccc"
         inkscape:connector-curvature="0"
         id="path4226-1-8-06"
         d="m 5.7667895,11.81733 c -0.069791,0.125506 -0.1253422,0.314339 -0.1253422,0.433326 0,0.02762 0,0.06276 0.00684,0.111494 l -0.872296,-1.502099 c -0.027922,-0.04874 -0.048714,-0.118663 -0.048714,-0.181661 0,-0.06308 0.020809,-0.139762 0.048714,-0.188585 L 5.1947637,9.7561623 4.7272763,9.4908808 6.2485436,9.4626849 6.9880872,10.797053 6.5137654,10.524607 Z M 6.436834,7.4196379 C 6.5693061,7.1888352 6.785813,7.0630802 7.0507541,7.0630802 c 0.2863011,0 0.5096509,0.1329219 0.6700334,0.4050449 L 7.9580908,7.8663263 7.1344981,9.4558398 5.8018273,8.5163498 Z m 0.097424,5.6063051 c -0.3976936,0 -0.7255964,-0.328359 -0.7255964,-0.726551 0,-0.111819 0.048998,-0.300642 0.1187918,-0.419304 l 0.2230609,-0.3982 h 1.6540175 v 1.544066 H 6.534258 Z M 7.8603861,7.3774213 C 7.7558254,7.1960021 7.6162377,7.0699239 7.4487315,7 H 9.1651352 C 9.3186814,7 9.4371912,7.063077 9.507277,7.1819821 L 9.9328916,7.9085328 10.393297,7.635836 9.6534174,8.9636011 8.139557,8.942243 8.6070472,8.6769644 Z m 2.6448689,4.1184757 c 0.209096,0 0.383732,-0.0559 0.530164,-0.167482 l -0.865464,1.508934 c -0.0698,0.118659 -0.1952205,0.193479 -0.3416133,0.188586 H 9.0115861 V 13.5639 L 8.230157,12.257488 9.0115861,10.950744 v 0.545142 h 1.4936679 z m 0.669469,-1.257673 c 0.06296,0.111818 0.098,0.230477 0.098,0.356305 0,0.251583 -0.160671,0.517102 -0.383733,0.642618 -0.10483,0.05624 -0.251808,0.09992 -0.397693,0.09128 H 10.030362 L 9.2072981,9.9027787 10.540007,9.1411783 Z"
         style="fill:#ffffff;fill-opacity:1" />
    </g>
  </g>
</svg>

<svg xmlns="http://www.w3.org/2000/svg" width="16" height="16" version="1.1" id="svg7"><defs id="defs3"><style id="current-color-scheme" type="text/css"></style></defs><g transform="translate(-1457 -762)" id="user-trash_16"><g transform="translate(1457 762)" id="omkj"><path id="rect4139-28-0" opacity="1" fill="none" fill-opacity="1" stroke="none" stroke-width="1" stroke-linecap="butt" stroke-linejoin="miter" stroke-miterlimit="4" stroke-dasharray="none" stroke-dashoffset="0" stroke-opacity="1" d="M0 0h16v16H0z"/></g><g transform="translate(1457 762)" id="g6413" fill-opacity="1"><path d="M2.817.5h10.367c.287 0 .43.398.518.839l.467 2.322c.089.441-.231.839-.518.839H2.35c-.288 0-.608-.398-.52-.839l.467-2.322C2.387.898 2.53.5 2.817.5z" id="rect4290-3" opacity="1" fill="#636a78" stroke="#272a2f" stroke-width="1" stroke-linecap="butt" stroke-linejoin="miter" stroke-miterlimit="4" stroke-dasharray="none" stroke-dashoffset="0" stroke-opacity=".784"/><path d="M13.09 1l-1.603 11.807c-.04.294-.227.537-.509.537H5.022c-.282 0-.47-.243-.51-.537L2.91 1z" id="rect4203-7-01" opacity=".3" fill="#000" stroke="none" stroke-width="1" stroke-linecap="butt" stroke-linejoin="miter" stroke-miterlimit="4" stroke-dasharray="none" stroke-dashoffset="0" stroke-opacity="1"/><path d="M14.145 4.5l-1.11 10.512c-.029.27-.23.49-.517.49H3.483c-.286 0-.489-.22-.517-.49L1.856 4.5z" id="rect4203-78" opacity="1" fill="#636a78" stroke="#272a2f" stroke-width="1" stroke-linecap="butt" stroke-linejoin="miter" stroke-miterlimit="4" stroke-dasharray="none" stroke-dashoffset="0" stroke-opacity=".784"/><path id="path4226-1-8-06" d="M5.767 11.817a1.05 1.05 0 0 0-.126.434c0 .027 0 .062.007.111l-.872-1.502a.39.39 0 0 1-.049-.182c0-.063.021-.14.049-.188l.419-.734-.468-.265 1.522-.028.74 1.334-.475-.272zm.67-4.397a.681.681 0 0 1 .614-.357c.286 0 .51.133.67.405l.237.398-.824 1.59-1.332-.94zm.097 5.606a.73.73 0 0 1-.725-.727c0-.111.049-.3.118-.419l.224-.398h1.654v1.544h-1.27zM7.86 7.377A.856.856 0 0 0 7.45 7h1.716c.154 0 .272.063.342.182l.426.727.46-.273-.74 1.328-1.513-.022.467-.265zm2.645 4.119c.21 0 .384-.056.53-.168l-.865 1.51a.377.377 0 0 1-.342.188h-.816v.538l-.782-1.307.782-1.306v.545h1.493zm.67-1.258c.063.112.098.23.098.357 0 .251-.16.517-.384.642a.778.778 0 0 1-.398.091h-.46l-.824-1.425 1.333-.762z" fill="#fff"/></g></g></svg>
